src/4-icons/shop.svg

<svg width="260" height="260" viewBox="0 0 260 260" fill="none" xmlns="http://www.w3.org/2000/svg">
<path fill-rule="evenodd" clip-rule="evenodd" d="M83 75V47C83 21.0426 104.043 0 130 0C155.957 0 177 21.0426 177 47V75H206.261C211.267 75 215.501 78.7006 216.171 83.6608L238.469 248.661C239.279 254.661 234.614 260 228.559 260H31.4431C25.3881 260 20.7223 254.661 21.5332 248.661L43.8305 83.6608C44.5008 78.7006 48.7351 75 53.7404 75H83ZM83 89V133C83 136.866 86.134 140 90 140C93.866 140 97 136.866 97 133V89H163V133C163 136.866 166.134 140 170 140C173.866 140 177 136.866 177 133V89H199.597C202.114 89 204.238 90.8712 204.556 93.3682L223.283 240.368C223.663 243.356 221.335 246 218.323 246H41.6774C38.6651 246 36.3368 243.356 36.7174 240.368L55.4435 93.3682C55.7616 90.8712 57.8863 89 60.4035 89H83ZM163 75H97V47C97 28.7746 111.775 14 130 14C148.225 14 163 28.7746 163 47V75Z" fill="black"/>
</svg>

<svg width="260" height="260" viewBox="0 0 260 260" fill="none" xmlns="http://www.w3.org/2000/svg"><path fill-rule="evenodd" clip-rule="evenodd" d="M83 75V47c0-25.957 21.043-47 47-47s47 21.043 47 47v28h29.261a10 10 0 0 1 9.91 8.66l22.298 165.001c.81 6-3.855 11.339-9.91 11.339H31.443c-6.055 0-10.72-5.339-9.91-11.339l22.297-165A10 10 0 0 1 53.74 75H83Zm0 14v44a7 7 0 1 0 14 0V89h66v44a7 7 0 1 0 14 0V89h22.597a5 5 0 0 1 4.959 4.368l18.727 147a5 5 0 0 1-4.96 5.632H41.677a5 5 0 0 1-4.96-5.632l18.727-147A5 5 0 0 1 60.404 89H83Zm80-14H97V47c0-18.225 14.775-33 33-33s33 14.775 33 33v28Z" fill="#000"/></svg>
